X:1
T:Title
%%score { ( 1 3 ) | ( 2 4 ) }
L:1/8
M:3/4
K:Eb
V:1 treble nm="Grand Piano"
V:3 treble 
V:2 bass 
V:4 bass 
V:1
 z2 z2[Q:1/4=100] [B,GB]>[B,GB] | [B,FB]3 [EA] [B,EG][Ec] | [EB]2 [EA]2 [EG]>[EG] | [=Ec]3 B AG | %4
[M:2/4] A4 |[M:1/4] [FA]>[FA] |[M:3/4] A3 G FE | [Ec]2 [Ec]2 [EB]>[DA] | %8
 [G,EG]3 [CFA] [B,EG][A,DF] |[M:2/4] [G,E]4 |[M:9/8] z3 c3 A3 | E-[Ed][Ec] B3 G3 | GAG z2 D z2 D | %13
[M:3/4] c2 c [B,DB]3- |[M:3/8] [B,DB]3 | z3 |[M:9/8] c3 G3 z3 | [CGB]3 [CFA]3 EF_G | %18
 .E3 [B,A]3 z3 |[M:3/4] E6 |] %20
V:2
 z2 z2 E,>E, | D,3 C, B,,[=A,,_G,] | [B,,G,]2 [C,A,]2 [_D,B,]>[D,B,] | %3
 [C,C]3 [G,C=E] [F,CF][=E,C] |[M:2/4] [F,CF]4 |[M:1/4] [D,B,]>[D,B,] | %6
[M:3/4] [F,B,D]3 [E,B,E] [D,B,][C,=A,] | [A,,F,]2 [=A,,_G,]2 [B,,=G,]>[=B,,_G,] | C,3 A,, B,,B,, | %9
[M:2/4] E,4 |[M:9/8][K:treble] EGB[K:bass] [A,,A,]2 A,, A,,2 A,, | z B,[A,,A,] [E,G,E]3 [E,B,E]3 | %12
 z3 [F,B,D]2 [F,B,] [F,B,D]2 [F,B,] |[M:3/4] [F,=A,E]2 [F,A,E] B,,3- |[M:3/8] B,,3 | EGB | %16
[M:9/8][K:bass] [C,G,]2 C, C,2 C, z[K:treble] c[K:bass]C, | F,3 F,3 G,A,=A, | %18
 B,,2 B,, B,,2 B,, [B,,A,B,]2 [B,,A,B,] |[M:3/4] [E,G,B,]6 |] %20
V:3
 x6 | x6 | x6 | x6 |[M:2/4] x4 |[M:1/4] x2 |[M:3/4] x6 | x6 | x6 |[M:2/4] x4 | %10
[M:9/8] z3 E2 [A,E] [CE]2 [CE] | .[Ce]3 z3 z3 | z3 F3 F3 |[M:3/4] x6 |[M:3/8] x3 | x3 | %16
[M:9/8] =E2 [G,E] [CE]2 [CE] .[CEB]2 [CEB] | x9 | [B,G]2- [B,EG] D2 D D2 D |[M:3/4] x6 |] %20
V:4
 x6 | x6 | x6 | x6 |[M:2/4] x4 |[M:1/4] x2 |[M:3/4] x6 | x6 | x6 |[M:2/4] x4 | %10
[M:9/8][K:treble] x3[K:bass] x6 | .A,,3 z3 z3 | x9 |[M:3/4] x6 |[M:3/8] x3 | x3 | %16
[M:9/8][K:bass] z3 z3 .C,3[K:treble][K:bass] | x9 | x9 |[M:3/4] x6 |] %20

